rocket-launch.svg

<svg fill="currentColor" viewBox="0 0 24 24"><path d="m13.13 22.19-1.63-3.83c1.57-.58 3.04-1.36 4.4-2.27zM5.64 12.5l-3.83-1.63 6.1-2.77C7 9.46 6.22 10.93 5.64 12.5M21.61 2.39S16.66.269 11 5.93c-2.19 2.19-3.5 4.6-4.35 6.71-.28.75-.09 1.57.46 2.13l2.13 2.12c.55.56 1.37.74 2.12.46A19.1 19.1 0 0 0 18.07 13c5.66-5.66 3.54-10.61 3.54-10.61m-7.07 7.07c-.78-.78-.78-2.05 0-2.83s2.05-.78 2.83 0c.77.78.78 2.05 0 2.83s-2.05.78-2.83 0m-5.66 7.07-1.41-1.41zM6.24 22l3.64-3.64c-.34-.09-.67-.24-.97-.45L4.83 22zM2 22h1.41l4.77-4.76-1.42-1.41L2 20.59zm0-2.83 4.09-4.08c-.21-.3-.36-.62-.45-.97L2 17.76z"/></svg>

<svg  viewBox="0 0 24 24" fill="currentColor"><path  d="M13.13 22.19L11.5 18.36C13.07 17.78 14.54 17 15.9 16.09L13.13 22.19M5.64 12.5L1.81 10.87L7.91 8.1C7 9.46 6.22 10.93 5.64 12.5M21.61 2.39C21.61 2.39 16.66 .269 11 5.93C8.81 8.12 7.5 10.53 6.65 12.64C6.37 13.39 6.56 14.21 7.11 14.77L9.24 16.89C9.79 17.45 10.61 17.63 11.36 17.35C13.5 16.53 15.88 15.19 18.07 13C23.73 7.34 21.61 2.39 21.61 2.39M14.54 9.46C13.76 8.68 13.76 7.41 14.54 6.63S16.59 5.85 17.37 6.63C18.14 7.41 18.15 8.68 17.37 9.46C16.59 10.24 15.32 10.24 14.54 9.46M8.88 16.53L7.47 15.12L8.88 16.53M6.24 22L9.88 18.36C9.54 18.27 9.21 18.12 8.91 17.91L4.83 22H6.24M2 22H3.41L8.18 17.24L6.76 15.83L2 20.59V22M2 19.17L6.09 15.09C5.88 14.79 5.73 14.47 5.64 14.12L2 17.76V19.17Z"/></svg>
